X: 472
T: Marchmont House
C: N. Gow arr. Bert Murray
R: jig
B: Bert Murray's "Bon Accord Collection" 1999 p.47
%
Z: 2011 John Chambers <jc:trillian.mit.edu>
M: 6/8
L: 1/8
K: D
uA |\
FAF (D2A) | ded dAG | FAF uD2uf | eEE (E2G) |\
FAF (D2A) | dfd dAG | FdF Edc | dAF uD2 ||
ug |\
faf (d2f) | aba afd | faf def | eEE uE2ug |\
faf dfa | bag fed | BdB AFd | AFD D2 |]

%%sep 2 1 500

